X:1
T:Title
%%score 1 2
L:1/8
Q:1/4=90
M:4/4
K:Bb
V:1 treble nm="Grand Piano, Soprano"
V:2 bass nm="Choir Pad, Stand Alone for Jesus"
V:1
 [DB]>[DB] [DB][DB] [DB][DB][EG][DF] | [DB]2 [EG]2 [DF]2 z2 | [Fc]>[Fc] [Fc][Fc] [Fc][Fc][FA]F | %3
w: By~John~McPherson * * * * * * *|||
 [Fe]2 [Fd]2 [Fc]2 z2 | [DB]>[DB] [EB][EB] [EB][EB][EG][DF] | [DB]2 [EG]2 [DF]2 z2 | %6
w: |||
 [Ec]3 [Ec] [DB]2 [CA]2 | [Ec]4 [DB]2 z2 | [Fd]3 [Fd] [Fd]2 [Fd]2 | [Ge]4 [Fd]2 z2 | %10
w: ||||
 [DB]3 [DB] [EB]2 [EG]2 | [EG]4 [DF]2 [B,D][DF] | [DB]2 [EB]2 [DB]F[EG][FA] | %13
w: |||
 [FB]2 [Fc]2 [Fd]2 [Ge][Ge] | [Fd]3 [FB] [Fc]2 [FA]2 | [Ec]4 [DB]4- | [DB]4 z4 |] %17
w: ||||
V:2
 [B,,F,]>[B,,F,] [B,,F,][B,,F,] [B,,F,][B,,F,][B,,B,][B,,B,] | [B,,F,]2 [B,,B,]2 [B,,B,]2 z2 | %2
 [F,A,]>[F,A,] [F,A,][F,A,] [F,A,][F,A,][F,C][F,A,] | [F,C]2 [F,B,]2 [F,A,]2 z2 | %4
 [B,,F,]>[B,,F,] [B,,G,][B,,G,] [B,,F,][B,,F,][B,,B,][B,,B,] | [B,,F,]2 [B,,B,]2 [B,,B,]2 z2 | %6
 [E,G,]3 [E,G,] F,2 F,2 | [F,A,]4 [B,,B,]2 z2 | B,3 B, B,2 B,2 | B,4 B,2 z2 | %10
 [B,,F,]3 [B,,F,] [E,G,]2 [E,B,]2 | [B,,B,]4 [B,,B,]2 [B,,F,][B,,B,] | %12
 [B,,F,]2 [B,,G,]2 [B,,F,][D,B,][E,B,][E,C] | [D,B,]2 [F,A,]2 B,2 [E,B,][E,B,] | %14
 [F,B,]3 [F,D] [F,E]2 [F,C]2 | [F,A,]4 [B,,B,]4- | [B,,B,]4 z4 |] %17

